!!!SOCIAL_FUNCTION:	songs for little children
!!!PDT:	1939
!!!OTL: No_126_"I_Am_Going_To_Be_a_Fisherman".krn
!!!LANG: Non-Tone
!!!LING_GROUP: Wakashan
!!!REG: Pacific Northwest
**kern
*staff1
=1-
=
*clefF4
*k[b-]
*M2/4
[2c\
=2
4c\]
12d\L
12c\
12c\J
=3
[2c\
=4
8c\]
8r
12c\L
12c\
12c\J
=5
4c\
4B-\
=6
4A\
8A\
16r
16c\
=7||
*M3/4
4..c\
16B-\
8.c\L
16B-\Jk
=8
8A\L
[8A\J
4A\]
8A\
8r
=9||
*M2/4
8.A\L
16c\Jk
8.Bn\L
16c\Jk
=10
4c\
8B-\
8r
=11
2A\
=12
4A\
8A\
8r
=13
4A\
8c\L
8c\J
==:|!
*-
